SendMoi/AppIcon.icon/Assets/4 – goggles.svg

<svg fill="none" height="1024" viewBox="0 0 1024 1024" width="1024" xmlns="http://www.w3.org/2000/svg" xmlns:xlink="http://www.w3.org/1999/xlink"><linearGradient id="a" gradientUnits="userSpaceOnUse" x1="695.598" x2="324.493" y1="741.758" y2="232.001"><stop offset="0" stop-color="#2b7fff"/><stop offset=".371895" stop-color="#8722fb"/><stop offset=".4717" stop-color="#9810fa"/><stop offset=".580367" stop-color="#8722fb"/><stop offset=".671535" stop-color="#6c3dfc"/><stop offset=".89302" stop-color="#2b7fff"/></linearGradient><path d="m882.76 357.389c-8.51-26.45-29.67-48.3-57.5-59.11-83.72-32.89-190.67-52.44-307.05-52.44s-231.38 21.16-316.48 56.35c-27.37 11.27-47.84 32.89-56.12 59.11-17.71 56.58-27.6 118.45-27.6 182.85s0 15.41.46 23c1.15 33.58 21.62 64.4 54.05 80.04 46.69 22.54 102.58 40.71 164.91 52.67 30.59 5.98 61.64-5.29 82.8-29.21 25.76-28.75 58.42-46 94.3-46s69.23 17.48 94.99 46.92c20.93 23.69 51.75 35.19 82.34 29.44 60.72-11.27 115.46-28.06 161.69-49.22 33.58-15.41 55.43-46 56.81-80.04.46-9.2.69-18.4.69-27.83 0-66.01-10.12-129.03-28.75-186.76z" fill="url(#a)"/><g fill="#000"><path d="m822.96 326.569c-201.48-60.49-416.3-60.49-617.78 0-3.68 1.15-7.59-.92-8.51-4.37-1.15-3.45.92-7.36 4.6-8.51 204.01-61.41 421.59-61.41 625.6 0 3.68 1.15 5.75 5.06 4.6 8.51s-5.06 5.52-8.51 4.37z"/><path d="m899.356 430.573-5.733.441c-5.066.39-8.857 4.813-8.467 9.879l5.505 71.549c.39 5.066 4.813 8.857 9.879 8.467l5.733-.441c5.066-.39 8.857-4.813 8.467-9.879l-5.505-71.549c-.39-5.066-4.813-8.857-9.879-8.467z"/><path d="m131.62 437.571-5.747-.191c-5.079-.168-9.332 3.812-9.5 8.89l-2.38 71.721c-.168 5.078 3.812 9.331 8.89 9.5l5.747.191c5.078.168 9.332-3.812 9.5-8.89l2.379-71.721c.169-5.078-3.811-9.331-8.889-9.5z"/></g></svg>

<svg width="1024" height="1024" viewBox="0 0 1024 1024" fill="none" xmlns="http://www.w3.org/2000/svg">
<path d="M882.76 357.389C874.25 330.939 853.09 309.089 825.26 298.279C741.54 265.389 634.59 245.839 518.21 245.839C401.83 245.839 286.83 266.999 201.73 302.189C174.36 313.459 153.89 335.079 145.61 361.299C127.9 417.879 118.01 479.749 118.01 544.149C118.01 608.549 118.01 559.559 118.47 567.149C119.62 600.729 140.09 631.549 172.52 647.189C219.21 669.729 275.1 687.899 337.43 699.859C368.02 705.839 399.07 694.569 420.23 670.649C445.99 641.899 478.65 624.649 514.53 624.649C550.41 624.649 583.76 642.129 609.52 671.569C630.45 695.259 661.27 706.759 691.86 701.009C752.58 689.739 807.32 672.949 853.55 651.789C887.13 636.379 908.98 605.789 910.36 571.749C910.82 562.549 911.05 553.349 911.05 543.919C911.05 477.909 900.93 414.889 882.3 357.159L882.76 357.389Z" fill="url(#paint0_linear_165_358)"/>
<path d="M822.96 326.569C621.48 266.079 406.66 266.079 205.18 326.569C201.5 327.719 197.59 325.649 196.67 322.199C195.52 318.749 197.59 314.839 201.27 313.689C405.28 252.279 622.86 252.279 826.87 313.689C830.55 314.839 832.62 318.749 831.47 322.199C830.32 325.649 826.41 327.719 822.96 326.569Z" fill="black"/>
<path d="M899.356 430.573L893.623 431.014C888.557 431.404 884.766 435.827 885.156 440.893L890.661 512.442C891.051 517.508 895.474 521.299 900.54 520.909L906.273 520.468C911.339 520.078 915.13 515.655 914.74 510.589L909.235 439.04C908.845 433.974 904.422 430.183 899.356 430.573Z" fill="black"/>
<path d="M131.62 437.571L125.873 437.38C120.794 437.212 116.541 441.192 116.373 446.27L113.993 517.991C113.825 523.069 117.805 527.322 122.883 527.491L128.63 527.682C133.708 527.85 137.962 523.87 138.13 518.792L140.509 447.071C140.678 441.993 136.698 437.74 131.62 437.571Z" fill="black"/>
<defs>
<linearGradient id="paint0_linear_165_358" x1="695.597" y1="741.758" x2="324.493" y2="232.001" gradientUnits="userSpaceOnUse">
<stop offset="0.1" stop-color="#2B7FFF"/>
<stop offset="0.418612" stop-color="#9831FC"/>
<stop offset="0.57" stop-color="#B349FF"/>
<stop offset="0.653931" stop-color="#9831FC"/>
<stop offset="0.778553" stop-color="#6C3DFC"/>
<stop offset="0.89302" stop-color="#2B7FFF"/>
</linearGradient>
</defs>
</svg>
